packages/foundations/assets/icons/functional/images/accessibility/support_dog_20.svg

<svg width="20" height="20" viewBox="0 0 20 20" fill="none" xmlns="http://www.w3.org/2000/svg">
<g clip-path="url(#clip0_183_3620)">
<path fill-rule="evenodd" clip-rule="evenodd" d="M17.316 5.0521L14.54 4.1261L12.707 2.2931C12.5773 2.16297 12.4141 2.07123 12.2355 2.02799C12.0569 1.98476 11.8699 1.99172 11.695 2.0481C11.5199 2.10391 11.3636 2.20705 11.2434 2.34611C11.1232 2.48517 11.0438 2.65474 11.014 2.8361L10.191 7.7761L4.707 2.2931C4.61416 2.20025 4.50393 2.12661 4.38263 2.07636C4.26132 2.02611 4.1313 2.00025 4 2.00025C3.8687 2.00025 3.73868 2.02611 3.61737 2.07636C3.49607 2.12661 3.38584 2.20025 3.293 2.2931C3.10549 2.48061 3.00015 2.73492 3.00015 3.0001C3.00015 3.26527 3.10549 3.51959 3.293 3.7071L7.586 8.0001H4.178C4.121 7.9101 4 7.6451 4 7.0001C4 6.73488 3.89464 6.48053 3.70711 6.29299C3.51957 6.10546 3.26522 6.0001 3 6.0001C2.73478 6.0001 2.48043 6.10546 2.29289 6.29299C2.10536 6.48053 2 6.73488 2 7.0001C2 8.5141 2.5 9.2621 3 9.6331V15.5001C3 16.8801 4.122 18.0001 5.5 18.0001C6.878 18.0001 8 16.8801 8 15.5001V14.3901C8.66023 14.5211 9.33977 14.5211 10 14.3901V15.5001C10 16.8801 11.122 18.0001 12.5 18.0001C13.878 18.0001 15 16.8801 15 15.5001V9.8741C16.445 9.5171 18 8.3661 18 6.0001C18.0001 5.79023 17.9341 5.58566 17.8113 5.41547C17.6885 5.24528 17.5152 5.11813 17.316 5.0521ZM7.447 12.1061C7.2945 12.0299 7.12506 11.9939 6.95476 12.0017C6.78445 12.0094 6.61895 12.0605 6.47397 12.1502C6.32899 12.2398 6.20933 12.3651 6.12638 12.514C6.04342 12.663 5.99992 12.8306 6 13.0011V15.5011C6 15.6337 5.94732 15.7609 5.85355 15.8547C5.75979 15.9484 5.63261 16.0011 5.5 16.0011C5.36739 16.0011 5.24021 15.9484 5.14645 15.8547C5.05268 15.7609 5 15.6337 5 15.5011V10.0011H9V12.5011C8.384 12.5011 7.668 12.2151 7.447 12.1061ZM12.5 16.0011C12.3674 16.0011 12.2402 15.9484 12.1464 15.8547C12.0527 15.7609 12 15.6337 12 15.5011V13.0011C11.9992 12.7362 11.8936 12.4824 11.7062 12.2952C11.5188 12.108 11.2649 12.0026 11 12.0021V10.6201L13 11.6201V15.5021C13 15.6347 12.9473 15.7619 12.8536 15.8557C12.7598 15.9494 12.6326 16.0021 12.5 16.0021V16.0011ZM14 8.0011C13.7348 8.0011 13.4804 8.10645 13.2929 8.29399C13.1054 8.48153 13 8.73588 13 9.0011V9.3831L12.031 8.8981L12.667 5.0821L13.293 5.7081C13.4029 5.81768 13.5367 5.90019 13.684 5.9491L15.913 6.6921C15.58 7.8721 14.397 7.9951 14.001 8.0021L14 8.0011Z" fill="#1A1C1F"/>
</g>
<defs>
<clipPath id="clip0_183_3620">
<rect width="20" height="20" fill="white"/>
</clipPath>
</defs>
</svg>

<svg xmlns="http://www.w3.org/2000/svg" width="20" height="20" fill="none"><g clip-path="url(#a)"><path fill="#1A1C1F" fill-rule="evenodd" d="m17.316 5.052-2.776-.926-1.833-1.833a.997.997 0 0 0-1.464.053c-.12.14-.2.309-.229.49l-.823 4.94-5.484-5.483a1 1 0 1 0-1.414 1.414L7.586 8H4.178C4.121 7.91 4 7.645 4 7a1 1 0 0 0-2 0c0 1.514.5 2.262 1 2.633V15.5C3 16.88 4.122 18 5.5 18S8 16.88 8 15.5v-1.11c.66.131 1.34.131 2 0v1.11c0 1.38 1.122 2.5 2.5 2.5s2.5-1.12 2.5-2.5V9.874c1.445-.357 3-1.508 3-3.874a1 1 0 0 0-.684-.948m-9.869 7.054A1 1 0 0 0 6 13.001v2.5a.5.5 0 0 1-1 0v-5.5h4v2.5c-.616 0-1.332-.286-1.553-.395m5.053 3.895a.5.5 0 0 1-.5-.5v-2.5a1 1 0 0 0-1-.999V10.62l2 1v3.882a.5.5 0 0 1-.5.5m1.5-8a1 1 0 0 0-1 1v.382l-.969-.485.636-3.816.626.626a1 1 0 0 0 .391.241l2.229.743c-.333 1.18-1.516 1.303-1.912 1.31z" clip-rule="evenodd"/></g><defs><clipPath id="a"><path fill="#fff" d="M0 0h20v20H0z"/></clipPath></defs></svg>
